X:1
T:Drömde mik en dröm i nat
T:(tolkning Angul Hammerich, 1921)
R:Visa
O:Lund, Skåne
Z:Åke Persson, 2011-09-27
M:6/4
L:1/4
K:D
G2 B A2 B | G2 F E2 G | B B B B2 G | E3 z3 |
w:Eröm-ef mik fn|eröm i nbt um|sil-ki ok är-lik|päl
G2 B A2 B | B2 F B3 | F G E G2 B | F3 z3 ||
"Omkväef" G2 B A2 B | G3 A2 F | E2 |]

